static/assets/template/assets/img/icons/essential/detailed/Pinch.svg

<svg height="105" viewBox="0 0 123 105" width="123" xmlns="http://www.w3.org/2000/svg"><g fill="none" fill-rule="evenodd" transform="translate(2 2)"><g transform="translate(7 7)"><g fill-rule="nonzero"><path d="m81.5 4.7c-2.2-3.3-6.5-4.6-9.9-2.7-3.6 1.9-4.9 6.1-3.4 9.7l-2.8 1.8-3-4.6c-2.3-3.4-6.9-4.7-10.4-2.6-3.6 2.2-4.7 7-2.4 10.5l3.1 4.7-2.6 1.7-6.2-9.4c-2.4-3.7-7.4-5.1-11.1-2.7-3.9 2.4-5 7.5-2.5 11.3l6.3 9.6-2.3 1.5-18.6-28.4c-2.4-3.7-7.4-5.1-11.1-2.7-3.9 2.4-5 7.5-2.5 11.3l27 41.2 2.2 3.3 9.3 14.3-2.4 1.6-22.2-2.7c-8.2-1-14.1 3.7-12.9 3-2.8 1.8-2 6.2 1.3 6.9 30.6 6.7 28.8 8.3 61.8 12.4 3.3.4 6.6-.4 9.4-2.2l27.4-18c9.1-6 11.7-18.2 5.7-27.3z"/><path d="m71 1.2c3.5-1.8 7.8-.5 10 2.8l27.1 41.3c6 9.1 3.4 21.4-5.7 27.3l-27.4 18c-2.8 1.8-6.1 2.6-9.4 2.2-11.2-1.5-22.4-2.9-33.4-5.3-8.7-1.9-17.2-4.6-25.9-6.4-.9-.2-1.7-.4-2.6-.6-1.5-.3-2.7-1.6-2.9-3.2-.4-3.2 3.1-4.7 5.5-5.6 2.9-1.1 6.1-1.5 9.2-1.1l22.2 2.7 2.4-1.6-38.3-58.5c-2.4-3.7-1.7-8.8 1.9-11.3 3.7-2.6 8.9-1.6 11.4 2.2l18.8 28.7 2.3-1.5-6.1-9.3c-2.4-3.7-1.7-8.8 1.9-11.3 3.7-2.6 8.9-1.6 11.4 2.2l6.3 9.7 2.6-1.7-2.9-4.5c-2.3-3.4-1.6-8.2 1.8-10.5 3.5-2.4 8.3-1.5 10.6 2l3.2 4.8 2.8-1.8c-1.7-3.6-.4-7.8 3.2-9.7z"/><path d="m74.2 6c3.5-1.8 7.8-.5 10 2.8l23.9 36.5c6 9.1 3.4 21.4-5.7 27.3l-27.4 18c-2.8 1.8-6.1 2.6-9.4 2.2-10-1.2-31.8-4.1-36.9-6.3v-.1c-1.5-.6-4.2.1-5.1-1.3l-21.5-4.3c8.7-5.2 13.6-8.8 22.1-7.9l13.6 1.4 2.4-1.6-35.4-55c-2.5-3.8-1.4-8.9 2.5-11.3 3.8-2.3 8.7-1 11.1 2.7l18.6 28.4 2.3-1.5-6.1-9.3c-2.4-3.7-1.7-8.8 1.9-11.3 3.7-2.6 8.9-1.6 11.4 2.2l6.3 9.7 2.6-1.7-3.2-4.9c-2.6-4.1-.7-9.9 4.6-11.3 3.1-.8 6.3.5 8.1 3.2l3.2 4.8 2.8-1.8c-1.6-3.4-.3-7.7 3.3-9.6z"/></g><path d="m81.2 4.4c-2.3-3.4-6.9-4.3-10.3-2-3.1 2-4.2 6-2.8 9.3l-2.8 1.8-3.2-4.8c-2.3-3.5-6.9-4.4-10.4-2.2s-4.4 6.9-2.2 10.4l3.1 4.7-2.6 1.7-6.3-9.7c-2.4-3.7-7.4-4.8-11.2-2.3-3.7 2.4-4.8 7.4-2.3 11.2l6.3 9.6-2.3 1.5-18.8-28.7c-2.4-3.7-7.4-4.8-11.2-2.3-3.7 2.4-4.8 7.4-2.3 11.2l4.4 6.8" stroke-linecap="round" stroke-linejoin="round" stroke-width="3.2"/><path d="m17 36.6 11.9 18.2 2.2 3.3 9.3 14.3-2.4 1.6-20.3-3.9c-9.1-1.8-21 4.4-16.6 9.7 1.6 2 4.4 1.9 6.7 2.5 23.1 4.8 19.6 6.6 58.1 11.2 3.3.4 6.6-.4 9.4-2.2 6.1-4 17.7-11.6 27.4-18 9.1-6 11.7-18.2 5.7-27.3l-20.9-32" stroke-linecap="round" stroke-linejoin="round" stroke-width="3"/><path d="m10.1 26 .5.8" stroke-linecap="round" stroke-linejoin="round" stroke-width="3"/></g><g stroke-linecap="round" stroke-linejoin="round"><path d="m6.8 27.5c-4.7-3.3-7.3-9.2-6.1-15.2 1.7-8 9.5-13.1 17.5-11.4 6 1.3 10.4 6 11.5 11.7" stroke-width="3.2"/><path d="m21.3 96.9c-6.4 2.9-14.1 1-18.2-5-4.7-6.7-3-15.9 3.7-20.5 5.2-3.6 12-3.4 16.9 0" stroke-width="3.2"/><path d="m13.8 56.7-5.3 5.3-5.3-5.3" stroke-width="3"/><path d="m8.5 36.5v24" stroke-width="3"/><path d="m13.8 40.3-5.3-5.3-5.3 5.3" stroke-width="3"/></g></g></svg>

<?xml version="1.0" encoding="UTF-8"?>
<svg width="123px" height="105px" viewBox="0 0 123 105" version="1.1" xmlns="http://www.w3.org/2000/svg" xmlns:xlink="http://www.w3.org/1999/xlink">
    <!-- Generator: Sketch 51.2 (57519) - http://www.bohemiancoding.com/sketch -->
    <title>Pinch</title>
    <desc>Created with Sketch.</desc>
    <defs></defs>
    <g id="Page-1" stroke="none" stroke-width="1" fill="none" fill-rule="evenodd">
        <g id="Pinch" transform="translate(2.000000, 2.000000)">
            <g id="Group" transform="translate(7.000000, 7.000000)">
                <path d="M81.5,4.7 C79.3,1.4 75,0.1 71.6,2 C68,3.9 66.7,8.1 68.2,11.7 L65.4,13.5 L62.4,8.9 C60.1,5.5 55.5,4.2 52,6.3 C48.4,8.5 47.3,13.3 49.6,16.8 L52.7,21.5 L50.1,23.2 L43.9,13.8 C41.5,10.1 36.5,8.7 32.8,11.1 C28.9,13.5 27.8,18.6 30.3,22.4 L36.6,32 L34.3,33.5 L15.7,5.1 C13.3,1.4 8.3,-8.8817842e-16 4.6,2.4 C0.7,4.8 -0.4,9.9 2.1,13.7 L29.1,54.9 L31.3,58.2 L40.6,72.5 L38.2,74.1 L16,71.4 C7.8,70.4 1.9,75.1 3.1,74.4 C0.3,76.2 1.1,80.6 4.4,81.3 C35,88 33.2,89.6 66.2,93.7 C69.5,94.1 72.8,93.3 75.6,91.5 L103,73.5 C112.1,67.5 114.7,55.3 108.7,46.2 L81.5,4.7 Z" id="Shape" class="fill-neutral" fill-rule="nonzero"></path>
                <path d="M71,1.2 C74.5,-0.6 78.8,0.7 81,4 L108.1,45.3 C114.1,54.4 111.5,66.7 102.4,72.6 L75,90.6 C72.2,92.4 68.9,93.2 65.6,92.8 C54.4,91.3 43.2,89.9 32.2,87.5 C23.5,85.6 15,82.9 6.3,81.1 C5.4,80.9 4.6,80.7 3.7,80.5 C2.2,80.2 1,78.9 0.8,77.3 C0.4,74.1 3.9,72.6 6.3,71.7 C9.2,70.6 12.4,70.2 15.5,70.6 L37.7,73.3 L40.1,71.7 L1.8,13.2 C-0.6,9.5 0.1,4.4 3.7,1.9 C7.4,-0.7 12.6,0.3 15.1,4.1 L33.9,32.8 L36.2,31.3 L30.1,22 C27.7,18.3 28.4,13.2 32,10.7 C35.7,8.1 40.9,9.1 43.4,12.9 L49.7,22.6 L52.3,20.9 L49.4,16.4 C47.1,13 47.8,8.2 51.2,5.9 C54.7,3.5 59.5,4.4 61.8,7.9 L65,12.7 L67.8,10.9 C66.1,7.3 67.4,3.1 71,1.2 Z" id="Shape" class="fill-neutral" fill-rule="nonzero"></path>
                <path d="M74.2,6 C77.7,4.2 82,5.5 84.2,8.8 L108.1,45.3 C114.1,54.4 111.5,66.7 102.4,72.6 L75,90.6 C72.2,92.4 68.9,93.2 65.6,92.8 C55.6,91.6 33.8,88.7 28.7,86.5 C28.7,86.5 28.7,86.4 28.7,86.4 C27.2,85.8 24.5,86.5 23.6,85.1 L2.1,80.8 C10.8,75.6 15.7,72 24.2,72.9 L37.8,74.3 L40.2,72.7 L4.8,17.7 C2.3,13.9 3.4,8.8 7.3,6.4 C11.1,4.1 16,5.4 18.4,9.1 L37,37.5 L39.3,36 L33.2,26.7 C30.8,23 31.5,17.9 35.1,15.4 C38.8,12.8 44,13.8 46.5,17.6 L52.8,27.3 L55.4,25.6 L52.2,20.7 C49.6,16.6 51.5,10.8 56.8,9.4 C59.9,8.6 63.1,9.9 64.9,12.6 L68.1,17.4 L70.9,15.6 C69.3,12.2 70.6,7.9 74.2,6 Z" id="Shape" class="fill-primary-100" fill-rule="nonzero"></path>
                <path d="M81.2,4.4 C78.9,1 74.3,0.1 70.9,2.4 C67.8,4.4 66.7,8.4 68.1,11.7 L65.3,13.5 L62.1,8.7 C59.8,5.2 55.2,4.3 51.7,6.5 C48.2,8.7 47.3,13.4 49.5,16.9 L52.6,21.6 L50,23.3 L43.7,13.6 C41.3,9.9 36.3,8.8 32.5,11.3 C28.8,13.7 27.7,18.7 30.2,22.5 L36.5,32.1 L34.2,33.6 L15.4,4.9 C13,1.2 8,0.1 4.2,2.6 C0.5,5 -0.6,10 1.9,13.8 L6.3,20.6" id="Shape" class="stroke-primary" stroke-width="3.2" stroke-linecap="round" stroke-linejoin="round"></path>
                <path d="M17,36.6 L28.9,54.8 L31.1,58.1 L40.4,72.4 L38,74 L17.7,70.1 C8.6,68.3 -3.3,74.5 1.1,79.8 C2.7,81.8 5.5,81.7 7.8,82.3 C30.9,87.1 27.4,88.9 65.9,93.5 C69.2,93.9 72.5,93.1 75.3,91.3 C81.4,87.3 93,79.7 102.7,73.3 C111.8,67.3 114.4,55.1 108.4,46 L87.5,14" id="Shape" class="stroke-primary" stroke-width="3" stroke-linecap="round" stroke-linejoin="round"></path>
                <path d="M10.1,26 L10.6,26.8" id="Shape" class="stroke-primary" stroke-width="3" stroke-linecap="round" stroke-linejoin="round"></path>
            </g>
            <path d="M6.8,27.5 C2.1,24.2 -0.5,18.3 0.7,12.3 C2.4,4.3 10.2,-0.8 18.2,0.9 C24.2,2.2 28.6,6.9 29.7,12.6" id="Shape" class="stroke-primary-300" stroke-width="3.2" stroke-linecap="round" stroke-linejoin="round"></path>
            <path d="M21.3,96.9 C14.9,99.8 7.2,97.9 3.1,91.9 C-1.6,85.2 0.1,76 6.8,71.4 C12,67.8 18.8,68 23.7,71.4" id="Shape" class="stroke-primary-300" stroke-width="3.2" stroke-linecap="round" stroke-linejoin="round"></path>
            <polyline id="Shape" class="stroke-primary" stroke-width="3" stroke-linecap="round" stroke-linejoin="round" points="13.8 56.7 8.5 62 3.2 56.7"></polyline>
            <path d="M8.5,36.5 C8.5,49.2 8.5,47.6 8.5,60.5" id="Shape" class="stroke-primary" stroke-width="3" stroke-linecap="round" stroke-linejoin="round"></path>
            <polyline id="Shape" class="stroke-primary" stroke-width="3" stroke-linecap="round" stroke-linejoin="round" points="13.8 40.3 8.5 35 3.2 40.3"></polyline>
        </g>
    </g>
</svg>
